lib/svgs/team-bus.svg

<svg xmlns="http://www.w3.org/2000/svg" viewBox="0 0 20 20">
    <path fill="#000" fill-rule="evenodd" d="M14.25 3h-7.5a1.842 1.842 0 0 0-1.875 1.875v9.375c0 .375.25.625.625.625v1.25c0 .375.25.625.625.625H8c.375 0 .625-.25.625-.625v-1.25h3.75v1.25c0 .375.25.625.625.625h1.875c.375 0 .625-.25.625-.625v-1.25c.375 0 .625-.25.625-.625V4.875A1.842 1.842 0 0 0 14.25 3M8.625 13h-1.25c-.375 0-.625-.25-.625-.625s.25-.625.625-.625h1.25c.375 0 .625.25.625.625S9 13 8.625 13m-2.5-7.917c0-.46.376-.833.839-.833h7.072c.463 0 .839.373.839.833v3.542h-8.75V5.083m-2.5 2.292C3.25 7.375 3 7.625 3 8v1.875c0 .375.25.625.625.625s.625-.25.625-.625V8c0-.375-.25-.625-.625-.625m13.75 0c-.375 0-.625.25-.625.625v1.875c0 .375.25.625.625.625s.625-.25.625-.625V8c0-.375-.25-.625-.625-.625"/>
</svg>

<?xml version="1.0" encoding="UTF-8" standalone="no"?>
<svg width="20px" height="20px" viewBox="0 0 20 20" version="1.1" xmlns="http://www.w3.org/2000/svg" xmlns:xlink="http://www.w3.org/1999/xlink">
    <defs></defs>
    <g id="Icons" stroke="none" stroke-width="1" fill="none" fill-rule="evenodd">
        <g id="Web" transform="translate(-241.000000, -2392.000000)" fill="#000000">
            <g id="team/team-bus" transform="translate(241.000000, 2392.000000)">
                <path d="M14.25,3 L6.75,3 C5.6875,3 4.875,3.8125 4.875,4.875 L4.875,14.25 C4.875,14.625 5.125,14.875 5.5,14.875 L5.5,16.125 C5.5,16.5 5.75,16.75 6.125,16.75 L8,16.75 C8.375,16.75 8.625,16.5 8.625,16.125 L8.625,14.875 L12.375,14.875 L12.375,16.125 C12.375,16.5 12.625,16.75 13,16.75 L14.875,16.75 C15.25,16.75 15.5,16.5 15.5,16.125 L15.5,14.875 C15.875,14.875 16.125,14.625 16.125,14.25 L16.125,4.875 C16.125,3.8125 15.3125,3 14.25,3 L14.25,3 L14.25,3 M8.625,13 L7.375,13 C7,13 6.75,12.75 6.75,12.375 C6.75,12 7,11.75 7.375,11.75 L8.625,11.75 C9,11.75 9.25,12 9.25,12.375 C9.25,12.75 9,13 8.625,13 L8.625,13 M6.125,5.08320192 C6.125,4.62303721 6.50097656,4.25 6.96398678,4.25 L14.0360132,4.25 C14.4993728,4.25 14.875,4.62301004 14.875,5.08320192 L14.875,8.625 L6.125,8.625 L6.125,5.08320192 L6.125,5.08320192 M3.625,7.375 C3.25,7.375 3,7.625 3,8 L3,9.875 C3,10.25 3.25,10.5 3.625,10.5 C4,10.5 4.25,10.25 4.25,9.875 L4.25,8 C4.25,7.625 4,7.375 3.625,7.375 L3.625,7.375 M17.375,7.375 C17,7.375 16.75,7.625 16.75,8 L16.75,9.875 C16.75,10.25 17,10.5 17.375,10.5 C17.75,10.5 18,10.25 18,9.875 L18,8 C18,7.625 17.75,7.375 17.375,7.375 L17.375,7.375" id="Shape"></path>
            </g>
        </g>
    </g>
</svg>
